images/UK_traffic_sign_505.1_(left).svg

<svg xmlns="http://www.w3.org/2000/svg" width="681" height="602.12" fill-rule="evenodd"><path d="m46.019 601.088-38.971-67.5L301.529 23.532h77.942l294.481 510.056-38.971 67.5" fill="#e31017"/><circle cx="340.5" cy="46.032" r="45" fill="#e31017"/><circle cx="634.981" cy="556.088" r="45" fill="#e31017"/><circle cx="46.019" cy="556.088" r="45" fill="#e31017"/><path d="M72 541.088 340.5 76.032 609 541.088" fill="#fff"/><path d="M300.5 521.088v-110h-50l-50-50 50-50h205v50h-55v160"/></svg>

<?xml version="1.0"?>
<svg xmlns="http://www.w3.org/2000/svg" width="681" height="602.12" fill-rule="evenodd">
<path d="M46.019,601.088 7.048,533.588 301.529,23.532 379.471,23.532 673.952,533.588 634.981,601.088" fill="#e31017" stroke="none"/>
<circle cx="340.5" cy="46.032" r="45" fill="#e31017" stroke="none"/>
<circle cx="634.981" cy="556.088" r="45" fill="#e31017" stroke="none"/>
<circle cx="46.019" cy="556.088" r="45" fill="#e31017" stroke="none"/>
<path d="M72,541.088 340.5,76.032 609,541.088" fill="#fff" stroke="none"/>
<path d="M300.5,521.088 300.5,411.088 250.5,411.088 200.5,361.088 250.5,311.088 455.5,311.088 455.5,361.088 400.5,361.088 400.5,521.088" fill="#000" stroke="none"/>
</svg>
